X:275
T: Nach groá Trauer kommt groá Freud (3-77), S. 213
N: P1050
O: Lothringen
S: PINCK, Louis: Verklingende Weisen, Bd3, Metz 1933]
R: Treue]
M: 4/4
L: 1/16
K: G
D2D2 | G4D4G2B2A4 | B8z4
G2B2 | d4B2G2A4A4 | G8z4
B2c2 | d4B2B2B2c2d2e2 | c4A4A4
c2d2 | B4G2G2G2A2B2c2 | A3G2F2ED4
D2D2 | G6A2B4G2G2 | A6B2c4
e2e2 | d4B2G2d4d2c2 | B8z4

